Resources/Public/Images/Icons/Ionicons/calculator.svg

<svg xmlns="http://www.w3.org/2000/svg" width="32" height="32" viewBox="0 0 512 512"><path d="M400 32H112c-8.8 0-16 7.2-16 16v416c0 8.8 7.2 16 16 16h288c8.8 0 16-7.2 16-16V48c0-8.8-7.2-16-16-16zM144 208h32v32h-32v-32zm0 64h32v32h-32v-32zm0 64h32v32h-32v-32zm96 96h-96v-32h96v32zm0-64h-32v-32h32v32zm0-64h-32v-32h32v32zm0-64h-32v-32h32v32zm64 192h-32v-32h32v32zm0-64h-32v-32h32v32zm0-64h-32v-32h32v32zm0-64h-32v-32h32v32zm64 192h-32v-96h32v96zm0-128h-32v-32h32v32zm0-64h-32v-32h32v32zm0-80H144V80h224v80z"/></svg>

<?xml version="1.0" encoding="utf-8"?>
<!-- Generator: Adobe Illustrator 16.2.1, SVG Export Plug-In . SVG Version: 6.00 Build 0)  -->
<!DOCTYPE svg PUBLIC "-//W3C//DTD SVG 1.1//EN" "http://www.w3.org/Graphics/SVG/1.1/DTD/svg11.dtd">
<svg version="1.1" id="Layer_1" xmlns="http://www.w3.org/2000/svg" xmlns:xlink="http://www.w3.org/1999/xlink" x="0px" y="0px"
	 width="32px" height="32px" viewBox="0 0 512 512" style="enable-background:new 0 0 512 512;" xml:space="preserve">
<path d="M400,32H112c-8.8,0-16,7.2-16,16v416c0,8.8,7.2,16,16,16h288c8.8,0,16-7.2,16-16V48C416,39.2,408.8,32,400,32z M144,208h32
	v32h-32V208z M144,272h32v32h-32V272z M144,336h32v32h-32V336z M240,432h-96v-32h96V432z M240,368h-32v-32h32V368z M240,304h-32v-32
	h32V304z M240,240h-32v-32h32V240z M304,432h-32v-32h32V432z M304,368h-32v-32h32V368z M304,304h-32v-32h32V304z M304,240h-32v-32
	h32V240z M368,432h-32v-96h32V432z M368,304h-32v-32h32V304z M368,240h-32v-32h32V240z M368,160H144V80h224V160z"/>
</svg>
